Newaita/actions/24/tab-new-background.svg

<svg height="24" viewBox="0 0 24 24" width="24" xmlns="http://www.w3.org/2000/svg"><g fill="#424242"><path d="m15.378906 16.558594h5.957032c.273437 0 .496093.222656.496093.496094v.992187c0 .277344-.222656.496094-.496093.496094h-5.957032c-.273437 0-.496094-.21875-.496094-.496094v-.992187c0-.273438.222657-.496094.496094-.496094zm0 0"/><path d="m19.347656 14.574219v5.957031c0 .273438-.21875.496094-.496094.496094h-.992187c-.273437 0-.496094-.222656-.496094-.496094v-5.957031c0-.273438.222657-.496094.496094-.496094h.992187c.277344 0 .496094.222656.496094.496094zm0 0"/><path d="m1.984375 17.054688h10.914063c.273437 0 .496093.222656.496093.496093 0 .277344-.222656.496094-.496093.496094h-10.914063c-.273437 0-.496094-.21875-.496094-.496094 0-.273437.222657-.496093.496094-.496093zm0 0"/><path d="m6.945312 5.644531-4.1875 7.691407v1.984374l5.046876-9.179687zm6.515626 0-5.761719 10.417969h1.144531l5.476562-9.921875zm6.519531 0-3.761719 6.945313h1.144531l3.476563-6.449219zm0 0"/><path d="m3.96875 4.15625c-1.097656 0-1.984375.886719-1.984375 1.984375v9.921875h1.984375v-8.929688c0-.550781.441406-.992187.992188-.992187h13.890624c.550782 0 .992188.441406.992188.992187v4.960938h1.988281v-5.953125c0-1.097656-.886719-1.984375-1.988281-1.984375zm0 0"/></g></svg>

<?xml version="1.0" encoding="UTF-8"?>
<svg xmlns="http://www.w3.org/2000/svg" xmlns:xlink="http://www.w3.org/1999/xlink" width="24px" height="24px" viewBox="0 0 24 24" version="1.1">
<g id="surface1">
<path style=" stroke:none;fill-rule:nonzero;fill:rgb(25.882354%,25.882354%,25.882354%);fill-opacity:1;" d="M 15.378906 16.558594 L 21.335938 16.558594 C 21.609375 16.558594 21.832031 16.78125 21.832031 17.054688 L 21.832031 18.046875 C 21.832031 18.324219 21.609375 18.542969 21.335938 18.542969 L 15.378906 18.542969 C 15.105469 18.542969 14.882812 18.324219 14.882812 18.046875 L 14.882812 17.054688 C 14.882812 16.78125 15.105469 16.558594 15.378906 16.558594 Z M 15.378906 16.558594 "/>
<path style=" stroke:none;fill-rule:nonzero;fill:rgb(25.882354%,25.882354%,25.882354%);fill-opacity:1;" d="M 19.347656 14.574219 L 19.347656 20.53125 C 19.347656 20.804688 19.128906 21.027344 18.851562 21.027344 L 17.859375 21.027344 C 17.585938 21.027344 17.363281 20.804688 17.363281 20.53125 L 17.363281 14.574219 C 17.363281 14.300781 17.585938 14.078125 17.859375 14.078125 L 18.851562 14.078125 C 19.128906 14.078125 19.347656 14.300781 19.347656 14.574219 Z M 19.347656 14.574219 "/>
<path style=" stroke:none;fill-rule:nonzero;fill:rgb(25.882354%,25.882354%,25.882354%);fill-opacity:1;" d="M 1.984375 17.054688 L 12.898438 17.054688 C 13.171875 17.054688 13.394531 17.277344 13.394531 17.550781 C 13.394531 17.828125 13.171875 18.046875 12.898438 18.046875 L 1.984375 18.046875 C 1.710938 18.046875 1.488281 17.828125 1.488281 17.550781 C 1.488281 17.277344 1.710938 17.054688 1.984375 17.054688 Z M 1.984375 17.054688 "/>
<path style=" stroke:none;fill-rule:nonzero;fill:rgb(25.882354%,25.882354%,25.882354%);fill-opacity:1;" d="M 6.945312 5.644531 L 2.757812 13.335938 L 2.757812 15.320312 L 7.804688 6.140625 Z M 13.460938 5.644531 L 7.699219 16.0625 L 8.84375 16.0625 L 14.320312 6.140625 Z M 19.980469 5.644531 L 16.21875 12.589844 L 17.363281 12.589844 L 20.839844 6.140625 Z M 19.980469 5.644531 "/>
<path style=" stroke:none;fill-rule:nonzero;fill:rgb(25.882354%,25.882354%,25.882354%);fill-opacity:1;" d="M 3.96875 4.15625 C 2.871094 4.15625 1.984375 5.042969 1.984375 6.140625 L 1.984375 16.0625 L 3.96875 16.0625 L 3.96875 7.132812 C 3.96875 6.582031 4.410156 6.140625 4.960938 6.140625 L 18.851562 6.140625 C 19.402344 6.140625 19.84375 6.582031 19.84375 7.132812 L 19.84375 12.09375 L 21.832031 12.09375 L 21.832031 6.140625 C 21.832031 5.042969 20.945312 4.15625 19.84375 4.15625 Z M 3.96875 4.15625 "/>
</g>
</svg>
